X: 27450
T: Molly Bán
R: reel
M: 4/4
K: Edorian
|:EBBA B3A|FD D2 BDFD|EBBA B3c|dBAd BAGF|
EBBA B2 AG|FD D2 BDAD|EBBA B3c|dBAd BE E2:|
|:eB B2 e2fe|dA A2 d3f|eB B2 e2fe|dBAF BE E2|
eB B2 e2fe|dA A2 d3e|f3e defe|dBAF BEED:|

